X: 26823
T: Mills Are Grinding, The
R: reel
M: 4/4
K: Gmajor
|:E|DGGF G2GA|BABd cBAG|D3E ~F3G|ABcA BGAF|
DGGF G2GA|BABd cBAG|d2eg fdcA|1 AGFA G3:|2 AGFA GABc||
|:dggf g2ga|b~g3 bgaf|d2de fefg|a~f3 abaf|
dggf g2ga|b~g3 bgaf|d2eg fdcA|1 AGFA GABc:|2 AGFA G3||

